X:32
T:Grant’s Whim. JClw.32
T:Chester Castle,aka. JClw.32
T:Grand Swaine,The,aka. JClw.32
T:Yorkshire Hornpipe,aka. JClw.32
M:4/4
L:1/8
Q:1/4=200
S:J.Clews MS,Stoke-upon-Tern,Shrops.1832
A:N. Shropshire
N:cf “Chester Castle” in volume II of ‘A Selection of Scotch, English, N:Irish and Foreign Airs adapted for the Fife, Violin or German Flute, N:Printed and Sold by I.A. Aird, Glasgow” c1780.
Z:Neil Brookes 2006
K:D
FG|A3d AFDF|AFdB AFDF|GBGE FAFE|E2EEE2 AG|!
FDFA d3f|edcB A2Bc|d2 cB c2B2|A2A”minim in MS”AA2:|!
|:cd|e3f ecAc|ecaf ecAc|dfed cedc|B2BBB2 A/B/c|!
d2B2AFDF|GABc d3B|A2GF EGFE|D2DDD2:|

